X: 29
T:King of the Fairies
% Nottingham Music Database
P:AAB
S:McCusker Brothers
M:4/4
L:1/8
R:Hornpipe
K:Em
B2|"Em"EDEF GFGA|"Em"B4 "B7"GFGA|"Em"B2E2 EFGE|"D"FGFE D2B,2|
"Em"EDEF "C"GFGA|"G"BAGB d2 d/3^c/3=c/3|"Em"B2E2 "D"GFED|"Em"E4 E2:|
B2|"Em"e2e2 Bdef|"Em"gagf egfe|"Bm"d2B2 BAB^c|"Bm"ded^c BcdB|
"Em"e2e2 Bdef|"Em"gagf efed|"Em"Bdeg "Bm"fedf|"Em"e4 -edef|
"Em"g3e "D"f3d|"G"edB^c "D"d3e|"G"dBAF "D"GAB^c|"G"dBAF "D"GFED|
"Em"B,2E2 EFGA|"Em"B2e2 "B7"edef|"Em"e2B2 "D"BAGF|"Em"E4 E2||


